X: 2003
T: Dill Pickle Rag, The
B: steve tunes
M:4/4
L:1/8
Q: 1/4=130
K:Gmaj
V:1 
B2 c2 ^c2|: "G"degd egde | gdeg -ge d2 | "A7"GABG ABGA |
BGAB -BA G2 | "D"DEFD EFDE | FDEF -FE D2 |
[1 "G"GFGE -EFG^G | "D7"A^GAd -dBc^c:| [2 A^GAd -dB A2 | "G"G4 -GGFE||
|:"D"D2 _E2 =E2 F2 | "G"G2 ed -de d2 | "D"F2 ed -de d2 | "G"G2 ed -de d2 | "D"DAEA =FA^FA |
"G"G2 ed -de d2 | [1 "A7"AB^cA B c3 | "D"d4 -dGFE:|[2 "D"defd  e f3 | "G"g8||
|:"C"cAGc AGEF | GEGA -AG E2 | "D7"D^CDG "G"-GE D2 | "C"C4- CGAB |
cAGc AGEF | GEGA -AG E2 | "D7"A^GAd -dB A2 | "G"G4- GGAB |
"C"cAGc AGEF | GEGA -AG E2 | "D7"D^CDG "G"-GE D2 | "C"(3CCC B,2 _B,4 |
"F"A,2 A,B, "D7"CB,CD | "C"EDEA- AG E2 | "G"DE-EG GE D2 | [1 "C"C4- CGAB:|[2 "C"[C4E4c4]z4|]
% abcbook-tune_id 6298c245341ede88af046719


% abcbook-boost 3
% abcbook-tablature 
% abcbook-transpose 
% abcbook-lastupdated 1656045296358
% abcbook-soundfonts 
% abcbook-repeats 3


